contributed-vectors/read_only_memories_type_m.svg

<?xml version="1.0" encoding="UTF-8" standalone="no"?>
<svg
   xmlns:dc="http://purl.org/dc/elements/1.1/"
   xmlns:cc="http://creativecommons.org/ns#"
   xmlns:rdf="http://www.w3.org/1999/02/22-rdf-syntax-ns#"
   xmlns:svg="http://www.w3.org/2000/svg"
   xmlns="http://www.w3.org/2000/svg"
   xmlns:sodipodi="http://sodipodi.sourceforge.net/DTD/sodipodi-0.dtd"
   xmlns:inkscape="http://www.inkscape.org/namespaces/inkscape"
   viewBox="0 0 192 192"
   version="1.1"
   id="svg16"
   sodipodi:docname="read_only_memories.svg"
   inkscape:version="0.92.4 (5da689c313, 2019-01-14)">
  <metadata
     id="metadata20">
    <rdf:RDF>
      <cc:Work
         rdf:about="">
        <dc:format>image/svg+xml</dc:format>
        <dc:type
           rdf:resource="http://purl.org/dc/dcmitype/StillImage" />
        <dc:title></dc:title>
      </cc:Work>
    </rdf:RDF>
  </metadata>
  <sodipodi:namedview
     pagecolor="#ffffff"
     bordercolor="#666666"
     borderopacity="1"
     objecttolerance="10"
     gridtolerance="10"
     guidetolerance="10"
     inkscape:pageopacity="0"
     inkscape:pageshadow="2"
     inkscape:window-width="1920"
     inkscape:window-height="1017"
     id="namedview18"
     showgrid="true"
     inkscape:zoom="3.4766083"
     inkscape:cx="102.97736"
     inkscape:cy="105.18043"
     inkscape:window-x="-8"
     inkscape:window-y="-8"
     inkscape:window-maximized="1"
     inkscape:current-layer="svg16"
     inkscape:snap-global="true">
    <inkscape:grid
       type="xygrid"
       id="grid827"
       spacingx="4"
       spacingy="4" />
  </sodipodi:namedview>
  <defs
     id="defs4">
    <style
       id="style2">.a{fill:none;stroke:#b1b5bd;stroke-linecap:round;stroke-linejoin:round;isolation:isolate;opacity:0.63;}</style>
  </defs>
  <circle
     class="a"
     cx="96"
     cy="96"
     r="88"
     id="circle8"
     style="fill:#9abeff;stroke:none;opacity:1" />
  <path
     style="fill:none;stroke:#ffffff;stroke-width:12;stroke-linecap:round;stroke-linejoin:round;stroke-miterlimit:4;stroke-dasharray:none;stroke-opacity:1"
     d="m 66.301093,125.75273 h 51.685447 c 0,0 8,0 8,-4 0,-8 -4.26072,-8 -4.26072,-8"
     id="path818"
     inkscape:connector-curvature="0"
     sodipodi:nodetypes="cccc" />
  <rect
     style="opacity:1;vector-effect:none;fill:#ffffff;fill-opacity:1;fill-rule:evenodd;stroke:none;stroke-width:12;stroke-linecap:round;stroke-linejoin:round;stroke-miterlimit:4;stroke-dasharray:none;stroke-opacity:1;paint-order:stroke fill markers"
     id="rect820"
     width="12"
     height="32"
     x="60"
     y="64"
     ry="6" />
  <rect
     style="opacity:1;vector-effect:none;fill:#ffffff;fill-opacity:1;fill-rule:evenodd;stroke:none;stroke-width:12;stroke-linecap:round;stroke-linejoin:round;stroke-miterlimit:4;stroke-dasharray:none;stroke-opacity:1;paint-order:stroke fill markers"
     id="rect822"
     width="12"
     height="32"
     x="120"
     y="64"
     ry="6" />
  <rect
     style="opacity:1;vector-effect:none;fill:#ffd6d4;fill-opacity:1;fill-rule:evenodd;stroke:none;stroke-width:12;stroke-linecap:round;stroke-linejoin:round;stroke-miterlimit:4;stroke-dasharray:none;stroke-opacity:1;paint-order:stroke fill markers"
     id="rect824"
     width="28"
     height="12"
     x="32"
     y="100"
     ry="6" />
  <rect
     style="opacity:1;vector-effect:none;fill:#ffd6d4;fill-opacity:1;fill-rule:evenodd;stroke:none;stroke-width:12;stroke-linecap:round;stroke-linejoin:round;stroke-miterlimit:4;stroke-dasharray:none;stroke-opacity:1;paint-order:stroke fill markers"
     id="rect826"
     width="28"
     height="12"
     x="132"
     y="100"
     ry="6" />
  <path
     style="opacity:1;vector-effect:none;fill:#ffffff;fill-opacity:1;fill-rule:evenodd;stroke:none;stroke-width:14.96662998;stroke-linecap:round;stroke-linejoin:round;stroke-miterlimit:4;stroke-dasharray:none;stroke-opacity:1;paint-order:stroke fill markers"
     d="M 96 8 A 88 88 0 0 0 88 8.4355469 L 88 24 C 88 28.432 91.568 32 96 32 C 100.432 32 104 28.432 104 24 L 104 8.4003906 A 88 88 0 0 0 96 8 z M 138.11133 18.736328 C 132.64917 31.067419 115.91396 40 96 40 C 76.127925 40 59.419863 31.105305 53.921875 18.814453 A 88 88 0 0 0 43.806641 25.273438 C 51.92217 40.943564 72.170188 52 96 52 C 119.82981 52 140.07783 40.943564 148.19336 25.273438 A 88 88 0 0 0 138.11133 18.736328 z "
     id="rect832" />
</svg>

<svg xmlns="http://www.w3.org/2000/svg" viewBox="0 0 192 192"><circle cx="96" cy="96" r="88" style="fill:#9abeff;stroke:none;opacity:1;stroke-linecap:round;stroke-linejoin:round;isolation:isolate"/><path d="M66.301 125.753h51.686s8 0 8-4c0-8-4.261-8-4.261-8" style="fill:none;stroke:#fff;stroke-width:12;stroke-linecap:round;stroke-linejoin:round;stroke-miterlimit:4;stroke-dasharray:none;stroke-opacity:1"/><rect width="12" height="32" x="60" y="64" ry="6" style="opacity:1;vector-effect:none;fill:#fff;fill-opacity:1;fill-rule:evenodd;stroke:none;stroke-width:12;stroke-linecap:round;stroke-linejoin:round;stroke-miterlimit:4;stroke-dasharray:none;stroke-opacity:1;paint-order:stroke fill markers"/><rect width="12" height="32" x="120" y="64" ry="6" style="opacity:1;vector-effect:none;fill:#fff;fill-opacity:1;fill-rule:evenodd;stroke:none;stroke-width:12;stroke-linecap:round;stroke-linejoin:round;stroke-miterlimit:4;stroke-dasharray:none;stroke-opacity:1;paint-order:stroke fill markers"/><rect width="28" height="12" x="32" y="100" ry="6" style="opacity:1;vector-effect:none;fill:#ffd6d4;fill-opacity:1;fill-rule:evenodd;stroke:none;stroke-width:12;stroke-linecap:round;stroke-linejoin:round;stroke-miterlimit:4;stroke-dasharray:none;stroke-opacity:1;paint-order:stroke fill markers"/><rect width="28" height="12" x="132" y="100" ry="6" style="opacity:1;vector-effect:none;fill:#ffd6d4;fill-opacity:1;fill-rule:evenodd;stroke:none;stroke-width:12;stroke-linecap:round;stroke-linejoin:round;stroke-miterlimit:4;stroke-dasharray:none;stroke-opacity:1;paint-order:stroke fill markers"/><path d="M96 8a88 88 0 0 0-8 .436V24c0 4.432 3.568 8 8 8s8-3.568 8-8V8.4a88 88 0 0 0-8-.4zm42.111 10.736C132.65 31.067 115.914 40 96 40c-19.872 0-36.58-8.895-42.078-21.186a88 88 0 0 0-10.115 6.46C51.922 40.943 72.17 52 96 52s44.078-11.056 52.193-26.727a88 88 0 0 0-10.082-6.537z" style="opacity:1;vector-effect:none;fill:#fff;fill-opacity:1;fill-rule:evenodd;stroke:none;stroke-width:14.96662998;stroke-linecap:round;stroke-linejoin:round;stroke-miterlimit:4;stroke-dasharray:none;stroke-opacity:1;paint-order:stroke fill markers"/></svg>
